X:1
T:Watching for Pa
M:2/4
L:1/8
K:D
 F2 FF| F2 DE| F2 A2| A4| B2 BB| A2 FD| C2 E2| E4| F2 FF| F2 DE| F2 A3/2- A/2|\
 A4| d2 cB| A2 FD| E2 A2| D4| EF G2| F4| DF A2| G4| ed cB| A d3| B2 E3/2 F/2|\
 D4| EF G2| F4| DF A2| G4| ed cB| A d3| B2 E3/2 F/2| D4|

